src/images/single-assets/DAI+.svg

<svg width="100" height="100" viewBox="0 0 100 100" fill="none" xmlns="http://www.w3.org/2000/svg">
<g clip-path="url(#clip0_6767_111814)">
<path d="M49.6562 99.7663C77.1609 99.7663 99.4578 77.4693 99.4578 49.9646C99.4578 22.4599 77.1609 0.162964 49.6562 0.162964C22.1515 0.162964 -0.145508 22.4599 -0.145508 49.9646C-0.145508 77.4693 22.1515 99.7663 49.6562 99.7663Z" fill="#FAB425"/>
<path d="M75.7033 74.9219C53.6204 79.383 32.0461 65.0708 27.5581 43.1162C25.3132 32.4782 27.6187 21.8532 33.1038 13.2731C16.4725 20.9167 6.63675 39.2112 10.4512 57.9969C14.9392 79.9515 36.5135 94.2638 58.5964 89.8026C69.9791 87.573 79.0994 80.8129 85.0408 71.7816C82.0792 73.1304 79.1181 74.253 75.7033 74.9219Z" fill="url(#paint0_linear_6767_111814)"/>
<path fill-rule="evenodd" clip-rule="evenodd" d="M88.777 68.8487L91.4893 70.7752C92.1003 71.2092 92.0366 72.1357 91.3719 72.482L82.5913 77.0568C81.8941 77.42 81.069 76.8761 81.1281 76.0922L81.9011 65.8297C81.9598 65.0516 82.8455 64.6357 83.4817 65.0875L85.9137 66.8149C92.1225 52.7048 89.8279 35.6517 78.7157 23.5964C63.8658 7.48624 38.8457 6.3497 22.5997 20.958C22.3938 21.1431 22.0752 21.1319 21.8876 20.9283L20.2318 19.1321C20.0441 18.9285 20.0585 18.6095 20.2642 18.4242C37.9096 2.52626 65.1096 3.75162 81.2492 21.2611C93.4928 34.5437 95.8768 53.4051 88.777 68.8487Z" fill="white"/>
<path fill-rule="evenodd" clip-rule="evenodd" d="M10.4496 31.686L7.73727 29.7595C7.12625 29.3255 7.18995 28.399 7.85462 28.0527L16.6352 23.478C17.3325 23.1147 18.1575 23.6586 18.0985 24.4425L17.3254 34.705C17.2668 35.4831 16.381 35.8991 15.7449 35.4472L13.3129 33.7198C7.10407 47.8299 9.39866 64.883 20.5109 76.9383C35.3608 93.0485 60.3809 94.185 76.6268 79.5768C76.8327 79.3916 77.1513 79.4028 77.339 79.6064L78.9948 81.4027C79.1824 81.6063 79.168 81.9252 78.9623 82.1105C61.317 98.0085 34.117 96.7831 17.9773 79.2737C5.73379 65.9911 3.34974 47.1297 10.4496 31.686Z" fill="white"/>
<path d="M25.0343 63.0435H20.196L20.2266 59.472H25.0343C26.2349 59.472 27.2473 59.2024 28.0715 58.6631C28.8957 58.1137 29.5164 57.3149 29.9335 56.2669C30.3609 55.2189 30.5746 53.9521 30.5746 52.4665V51.3829C30.5746 50.2433 30.4525 49.241 30.2083 48.3762C29.9742 47.5113 29.6232 46.7838 29.1551 46.1936C28.6871 45.6035 28.1122 45.1609 27.4305 44.8658C26.7487 44.5605 25.9653 44.4079 25.08 44.4079H20.1045V40.8212H25.08C26.5656 40.8212 27.924 41.0756 29.1551 41.5844C30.3965 42.0829 31.47 42.8003 32.3755 43.7364C33.2811 44.6725 33.9781 45.7917 34.4665 47.0941C34.9651 48.3863 35.2144 49.8261 35.2144 51.4134V52.4665C35.2144 54.0437 34.9651 55.4834 34.4665 56.7858C33.9781 58.0882 33.2811 59.2075 32.3755 60.1436C31.4801 61.0695 30.4067 61.7868 29.1551 62.2956C27.9138 62.7942 26.5402 63.0435 25.0343 63.0435ZM22.7907 40.8212V63.0435H18.2119V40.8212H22.7907Z" fill="white"/>
<path d="M46.2644 44.6216L40.2205 63.0435H35.3517L43.6087 40.8212H46.707L46.2644 44.6216ZM51.2858 63.0435L45.2266 44.6216L44.7382 40.8212H47.867L56.1698 63.0435H51.2858ZM51.0111 54.7712V58.3579H39.2742V54.7712H51.0111Z" fill="white"/>
<path d="M64.0758 40.8212V63.0435H59.5123V40.8212H64.0758Z" fill="white"/>
<path d="M82.4671 50.6656V54.4964H67.2351V50.6656H82.4671ZM76.9421 44.6369V60.8151H72.7754V44.6369H76.9421Z" fill="white"/>
</g>
<defs>
<linearGradient id="paint0_linear_6767_111814" x1="7.46308" y1="99.3776" x2="53.504" y2="45.907" gradientUnits="userSpaceOnUse">
<stop offset="0.0729167" stop-color="#FFD923"/>
<stop offset="0.4775" stop-color="#F8E5C2"/>
<stop offset="1" stop-color="#FAB223"/>
</linearGradient>
<clipPath id="clip0_6767_111814">
<rect width="99.4444" height="100" fill="white"/>
</clipPath>
</defs>
</svg>

<svg xmlns="http://www.w3.org/2000/svg" width="100" height="100" fill="none"><g clip-path="url(#a)"><path fill="#FAB425" d="M49.656 99.766c27.505 0 49.802-22.297 49.802-49.801S77.16.163 49.656.163-.146 22.46-.146 49.965s22.298 49.801 49.802 49.801"/><path fill="url(#b)" d="M75.703 74.922C53.62 79.383 32.046 65.07 27.558 43.116c-2.245-10.638.06-21.263 5.546-29.843C16.473 20.917 6.637 39.211 10.45 57.997 14.94 79.95 36.514 94.264 58.596 89.803c11.383-2.23 20.503-8.99 26.445-18.021-2.962 1.348-5.923 2.471-9.338 3.14"/><path fill="#fff" fill-rule="evenodd" d="m88.777 68.849 2.712 1.926c.611.434.548 1.36-.117 1.707l-8.78 4.575a1.003 1.003 0 0 1-1.464-.965l.773-10.262a1.003 1.003 0 0 1 1.58-.742l2.433 1.727c6.209-14.11 3.914-31.163-7.198-43.219C63.866 7.486 38.846 6.35 22.6 20.958a.51.51 0 0 1-.712-.03l-1.656-1.796a.5.5 0 0 1 .032-.708C37.91 2.526 65.11 3.752 81.25 21.261c12.244 13.283 14.628 32.144 7.528 47.588M10.45 31.686l-2.713-1.927a1.003 1.003 0 0 1 .118-1.706l8.78-4.575a1.003 1.003 0 0 1 1.463.964l-.773 10.263a1.003 1.003 0 0 1-1.58.742l-2.432-1.727C7.104 47.83 9.399 64.883 20.51 76.938c14.85 16.11 39.87 17.247 56.116 2.639a.51.51 0 0 1 .712.03l1.656 1.796a.5.5 0 0 1-.033.707c-17.645 15.898-44.845 14.673-60.985-2.836C5.734 65.99 3.35 47.13 10.45 31.686" clip-rule="evenodd"/><path fill="#fff" d="M25.034 63.044h-4.838l.03-3.572h4.808q1.8 0 3.038-.809 1.236-.825 1.861-2.396.642-1.572.642-3.8v-1.084q0-1.71-.367-3.007-.351-1.297-1.053-2.182a4.4 4.4 0 0 0-1.725-1.328q-1.022-.459-2.35-.458h-4.975V40.82h4.975q2.229 0 4.075.763a9.2 9.2 0 0 1 3.22 2.152q1.359 1.405 2.092 3.358.747 1.938.747 4.32v1.053q0 2.365-.747 4.319-.733 1.953-2.091 3.358a9.3 9.3 0 0 1-3.22 2.152q-1.863.747-4.122.748M22.791 40.82v22.223h-4.58V40.82zM46.264 44.622 40.22 63.044h-4.868l8.257-22.223h3.098zm5.022 18.422-6.06-18.422-.488-3.8h3.129l8.303 22.222zm-.275-8.273v3.587H39.274V54.77zM64.076 40.821v22.223h-4.564V40.82zM82.467 50.666v3.83H67.235v-3.83zm-5.525-6.03v16.18h-4.167v-16.18z"/></g><defs><linearGradient id="b" x1="7.463" x2="53.504" y1="99.378" y2="45.907" gradientUnits="userSpaceOnUse"><stop offset=".073" stop-color="#FFD923"/><stop offset=".477" stop-color="#F8E5C2"/><stop offset="1" stop-color="#FAB223"/></linearGradient><clipPath id="a"><path fill="#fff" d="M0 0h99.444v100H0z"/></clipPath></defs></svg>
